X:10356
T:Marlipo (M. Martinotti) - Mazurca
C:La Ciapa Rusa: Aji  & Safran 5c
M:3/4
L:1/8
K:C
GB dG Bd|c2A2F2|GB dG Bd|F2A2c2|\
GB dG Bd|(3cdc (3BcB (3ABA|AG AB cA|B4B2:|
d2 BG Bd|c2 AF Ac|d2 BG Bd|~c2~B2~A2|\
d2 BG Bd|c2 AF Ac|(3cdc (3BcB (3ABA|G2G2z2:|
